packages/components/src/components/icon/common/ic-unlink-apple.svg

<svg xmlns="http://www.w3.org/2000/svg" width="140" height="139" fill="#fff"><style>.a{fill:#fff}</style><path d="M119.2 41.6c1.7 1.7 2.7 4 2.7 6.4v15.3H.1V48c0-2.4 1-4.7 2.7-6.4C4.5 40 6.8 39 9.2 39h103.6c2.4 0 4.7 1 6.4 2.6ZM12 55.3c.7.5 1.6.7 2.5.7 1.2 0 2.4-.4 3.3-1.3.8-.8 1.3-2 1.3-3.2 0-.9-.3-1.8-.8-2.5-.5-.8-1.2-1.4-2-1.7-.9-.3-1.8-.4-2.7-.3-.8.2-1.7.6-2.3 1.3-.6.6-1.1 1.4-1.2 2.3-.2.9-.1 1.8.2 2.6.4.9.9 1.6 1.7 2.1Zm14.7 0c.8.5 1.7.7 2.6.7.6 0 1.2-.1 1.7-.3.6-.2 1.1-.6 1.5-1 .4-.4.8-.9 1-1.5.2-.5.3-1.1.3-1.7 0-.9-.2-1.8-.7-2.5-.5-.8-1.2-1.4-2.1-1.7-.8-.3-1.7-.4-2.6-.3-.9.2-1.7.6-2.4 1.3-.6.6-1 1.4-1.2 2.3-.2.9-.1 1.8.2 2.6.4.9 1 1.6 1.7 2.1Zm14.7 0c.8.5 1.7.7 2.6.7 1.2 0 2.3-.4 3.2-1.3.9-.8 1.3-2 1.3-3.2 0-.9-.2-1.8-.7-2.5-.5-.8-1.2-1.4-2.1-1.7-.8-.3-1.7-.4-2.6-.3-.9.2-1.7.6-2.4 1.3-.6.6-1 1.4-1.2 2.3-.2.9-.1 1.8.3 2.6.3.9.9 1.6 1.6 2.1ZM.1 129.7V65.4h121.8v64.3c0 2.5-.9 4.8-2.6 6.6-1.7 1.7-4 2.7-6.5 2.7H9.2c-2.4 0-4.7-1-6.4-2.7-1.7-1.8-2.7-4.1-2.7-6.6Z" fill="#85ACB0"/><path d="M70.6 78.5c.2 2.8-.7 5.5-2.5 7.7-.9 1.1-2 1.9-3.2 2.5-1.3.6-2.7.9-4 .9-.1-1.3.1-2.7.5-3.9a9.4 9.4 0 0 1 2-3.5c1.8-2.1 4.4-3.4 7.2-3.7Zm5.3 31.5c1.2 1.7 2.8 3.1 4.7 3.9l-.3-.1c-.7 2.4-1.9 4.7-3.3 6.8-2 3-4.1 6.1-7.4 6.1-1.3-.1-2.6-.4-3.7-.9-1.4-.7-2.8-1-4.3-1s-3 .3-4.4 1c-1.1.6-2.3.9-3.5.9-3.2.2-5.6-3-7.6-6-4.2-5.9-7.3-16.8-3.1-24.2 1-1.8 2.5-3.3 4.2-4.4 1.8-1 3.8-1.6 5.8-1.7 1.8.1 3.5.5 5 1.3 1 .4 2 .7 3 .8 1.1-.1 2.1-.4 3.1-.8 2-1 4.1-1.5 6.4-1.5 1.7.1 3.4.6 4.9 1.4 1.6.9 2.9 2 3.9 3.5-1.5.9-2.8 2.3-3.7 3.8-.9 1.6-1.4 3.4-1.4 5.2 0 2.1.6 4.1 1.7 5.9Z" class="a"/><path d="M103 72.9c20 0 36.3-16.2 36.3-36.3 0-20-16.3-36.3-36.3-36.3-20.1 0-36.3 16.3-36.3 36.3 0 20.1 16.2 36.3 36.3 36.3Z" fill="#FF444F"/><path d="m104.3 39.2 2.3 4.4 2.6 5.1 2.8 5-4.6 2.3-8.8-16.8h-6.8v-5.1H96l-2.3-4.5h-2.8c-.9 0-1.9.2-2.7.6-.9.3-1.6.8-2.3 1.5-.6.6-1.1 1.4-1.5 2.2-.3.9-.5 1.8-.5 2.7 0 .9.2 1.8.5 2.7.4.8.9 1.6 1.5 2.3.7.6 1.4 1.1 2.3 1.5.8.3 1.8.5 2.7.5h9.6v5.1h-9.6c-3.2 0-6.3-1.3-8.6-3.5-2.3-2.3-3.5-5.4-3.5-8.6 0-3.2 1.2-6.3 3.5-8.5 2.3-2.3 5.4-3.6 8.6-3.6l-2.7-4.9 4.5-2.4 1.2 2.3 2.7 5 2.7 5.1 2.3 4.5 2.7 5.1Zm10.8-14.7h-9.6v5.1h9.6c1.8 0 3.6.8 4.9 2.1 1.3 1.3 2.1 3.1 2.1 4.9 0 1.9-.8 3.6-2.1 5-1.3 1.3-3.1 2-4.9 2h-2.8l2.8 5.1c3.2 0 6.3-1.3 8.5-3.5 2.3-2.3 3.6-5.4 3.6-8.6 0-3.2-1.3-6.3-3.6-8.5-2.2-2.3-5.3-3.6-8.5-3.6Zm-.9 14.7v-5.1h-6.9l2.7 5.1h4.2Z" class="a"/></svg>

<svg xmlns="http://www.w3.org/2000/svg" width="140" height="139" viewBox="0 0 140 139" fill="#fff"><style>.a{fill:white;}</style><path d="M119.2 41.6C120.9 43.3 121.9 45.6 121.9 48V63.3H0.1V48C0.1 45.6 1.1 43.3 2.8 41.6 4.5 40 6.8 39 9.2 39H112.8C115.2 39 117.5 40 119.2 41.6ZM12 55.3C12.7 55.8 13.6 56 14.5 56 15.7 56 16.9 55.6 17.8 54.7 18.6 53.9 19.1 52.7 19.1 51.5 19.1 50.6 18.8 49.7 18.3 49 17.8 48.2 17.1 47.6 16.3 47.3 15.4 47 14.5 46.9 13.6 47 12.8 47.2 11.9 47.6 11.3 48.3 10.7 48.9 10.2 49.7 10.1 50.6 9.9 51.5 10 52.4 10.3 53.2 10.7 54.1 11.2 54.8 12 55.3ZM26.7 55.3C27.5 55.8 28.4 56 29.3 56 29.9 56 30.5 55.9 31 55.7 31.6 55.5 32.1 55.1 32.5 54.7 32.9 54.3 33.3 53.8 33.5 53.2 33.7 52.7 33.8 52.1 33.8 51.5 33.8 50.6 33.6 49.7 33.1 49 32.6 48.2 31.9 47.6 31 47.3 30.2 47 29.3 46.9 28.4 47 27.5 47.2 26.7 47.6 26 48.3 25.4 48.9 25 49.7 24.8 50.6 24.6 51.5 24.7 52.4 25 53.2 25.4 54.1 26 54.8 26.7 55.3ZM41.4 55.3C42.2 55.8 43.1 56 44 56 45.2 56 46.3 55.6 47.2 54.7 48.1 53.9 48.5 52.7 48.5 51.5 48.5 50.6 48.3 49.7 47.8 49 47.3 48.2 46.6 47.6 45.7 47.3 44.9 47 44 46.9 43.1 47 42.2 47.2 41.4 47.6 40.7 48.3 40.1 48.9 39.7 49.7 39.5 50.6 39.3 51.5 39.4 52.4 39.8 53.2 40.1 54.1 40.7 54.8 41.4 55.3ZM0.1 129.7V65.4H121.9V129.7C121.9 132.2 121 134.5 119.3 136.3 117.6 138 115.3 139 112.8 139H9.2C6.8 139 4.5 138 2.8 136.3 1.1 134.5 0.1 132.2 0.1 129.7Z" fill="#85ACB0"/><path d="M70.6 78.5C70.8 81.3 69.9 84 68.1 86.2 67.2 87.3 66.1 88.1 64.9 88.7 63.6 89.3 62.2 89.6 60.9 89.6 60.8 88.3 61 86.9 61.4 85.7 61.8 84.4 62.5 83.2 63.4 82.2 65.2 80.1 67.8 78.8 70.6 78.5ZM75.9 110C77.1 111.7 78.7 113.1 80.6 113.9L80.3 113.8C79.6 116.2 78.4 118.5 77 120.6 75 123.6 72.9 126.7 69.6 126.7 68.3 126.6 67 126.3 65.9 125.8 64.5 125.1 63.1 124.8 61.6 124.8 60.1 124.8 58.6 125.1 57.2 125.8 56.1 126.4 54.9 126.7 53.7 126.7 50.5 126.9 48.1 123.7 46.1 120.7 41.9 114.8 38.8 103.9 43 96.5 44 94.7 45.5 93.2 47.2 92.1 49 91.1 51 90.5 53 90.4 54.8 90.5 56.5 90.9 58 91.7 59 92.1 60 92.4 61 92.5 62.1 92.4 63.1 92.1 64.1 91.7 66.1 90.7 68.2 90.2 70.5 90.2 72.2 90.3 73.9 90.8 75.4 91.6 77 92.5 78.3 93.6 79.3 95.1 77.8 96 76.5 97.4 75.6 98.9 74.7 100.5 74.2 102.3 74.2 104.1 74.2 106.2 74.8 108.2 75.9 110Z" class="a"/><g mix-blend-mode="multiply"><path d="M103 72.9C123 72.9 139.3 56.7 139.3 36.6 139.3 16.6 123 0.3 103 0.3 82.9 0.3 66.7 16.6 66.7 36.6 66.7 56.7 82.9 72.9 103 72.9Z" fill="#FF444F"/></g><path d="M104.3 39.2L106.6 43.6 109.2 48.7 112 53.7 107.4 56 98.6 39.2H91.8V34.1H96L93.7 29.6H90.9C90 29.6 89 29.8 88.2 30.2 87.3 30.5 86.6 31 85.9 31.7 85.3 32.3 84.8 33.1 84.4 33.9 84.1 34.8 83.9 35.7 83.9 36.6 83.9 37.5 84.1 38.4 84.4 39.3 84.8 40.1 85.3 40.9 85.9 41.6 86.6 42.2 87.3 42.7 88.2 43.1 89 43.4 90 43.6 90.9 43.6H100.5V48.7H90.9C87.7 48.7 84.6 47.4 82.3 45.2 80 42.9 78.8 39.8 78.8 36.6 78.8 33.4 80 30.3 82.3 28.1 84.6 25.8 87.7 24.5 90.9 24.5L88.2 19.6 92.7 17.2 93.9 19.5 96.6 24.5 99.3 29.6 101.6 34.1 104.3 39.2ZM115.1 24.5H105.5V29.6H115.1C116.9 29.6 118.7 30.4 120 31.7 121.3 33 122.1 34.8 122.1 36.6 122.1 38.5 121.3 40.2 120 41.6 118.7 42.9 116.9 43.6 115.1 43.6H112.3L115.1 48.7C118.3 48.7 121.4 47.4 123.6 45.2 125.9 42.9 127.2 39.8 127.2 36.6 127.2 33.4 125.9 30.3 123.6 28.1 121.4 25.8 118.3 24.5 115.1 24.5ZM114.2 39.2V34.1H107.3L110 39.2H114.2Z" class="a"/></svg>
